X:1
T:List to the Story
T:Spanish Melody
T:List to the Story
T:Public Domain
T:Public Domain
C:Spanish Melody
Z:Public Domain
%%score ( 1 2 ) 3
L:1/8
M:3/4
K:D
V:1 treble 
V:2 treble 
V:3 bass 
V:1
 [FA]4 [EG]>[DF] | [DF]2 [CE]2 z2 | [CE]>[CF] [CG]3 [EG] | [DF]>[GB] [FA]4 | [FA]4 [EG]>[DF] | %5
w: 1.~List to the|sto- ry|Of the Christ, who|for thy soul|Left all the|
w: 2.~An- thems are|ring- ing|O- ver earth and|sea and shore,|Glad tid- ings|
w: 3.~Now He is|plead- ing|Up in Heaven for|thee this hour,|There in- ter-|
 [DF]2 [CE]2 z2 | [CE]>[DF] [CG]2 [A,C]2 | [A,D]4 z2 | [DF]>[FA] [Fd]3 [Ac] | [Ac]2 [GB]2 z2 | %10
w: glo- ry,|All to make thee|whole;|On the cross He|suf- fered,|
w: bring- ing,|Tell- ing o’er and|o’er|Of a Sav- ior|ris- en;|
w: ced- ing|In His love and|power;|Oh, the par- don|prof- fered,|
 [CE]>[CE] [CA]3 [CG] | [DF]>[GB] [FA]4 | [DF]>[FA] [Fd]3 [FA] | [Ac]2 [GB]2 z2 | %14
w: Bled and died on|Cal- va- ry,|Thus for thee He|pur- chased|
w: For the stone is|rolled a- way,|From the grave’s dark|pri- son|
w: Blood to take thy|sin a- way,|Love di- vine is|of- fered,|
"^Slower" [FA]>[FA] [FA]2 [CF]2 | [A,D]4 z2 ||"^Refrain" [DF]2 [DF]2 (3(FEF) | [CG]2 [CG]2 z2 | %18
w: Life so full and|free.|||
w: He is risen to-|day.|Je- sus is * *|call- ing,|
w: Wilt thou come to-|day?|||
 [CE]>[CE] [CA]3 [EG] | [DF]>[GB] [FA]4 | [DF]2 [DF]2 (3(FEF) | [CG]2 [CG]2 z2 | %22
w: ||||
w: Sweet and low He|calls for thee;|Je- sus is * *|call- ing,|
w: ||||
 A,>A, [DF]2 (CA,) | [A,D]4 z2 |] %24
w: ||
w: Wilt thou come and *||
w: ||
V:2
 x6 | x6 | x6 | x6 | x6 | x6 | x6 | x6 | x6 | x6 | x6 | x6 | x6 | x6 | x6 | x6 || x6 | x6 | x6 | %19
w: |||||||||||||||||||
w: |||||||||||||||||||
 x6 | x6 | x6 | x4 E2 | x6 |] %24
w: |||||
w: |||see?||
V:3
 [D,A,]4 [D,A,]>[D,A,] | [A,,A,]2 [A,,A,]2 z2 | [G,A,]>[F,A,] [E,A,]3 [C,A,] | %3
w: ~ ~ ~|~ ~|~ ~ ~ ~|
 [D,A,]>[D,D] [D,D]4 | [D,D]4 [D,A,]>[D,A,] | [A,,A,]2 [A,,A,]2 z2 | %6
w: ~ ~ ~|~ ~ ~|~ ~|
 [A,,G,]>[A,,F,] [A,,E,]2 [A,,G,]2 | [D,F,]4 z2 | [D,A,]>[D,A,] [D,A,]3 [F,D] | [G,D]2 [G,D]2 z2 | %10
w: ~ ~ ~ ~|~|~ ~ ~ ~|~ ~|
 [A,,A,]>[A,,A,] [A,,E,]3 [A,,A,] | [D,A,]>[D,D] [D,D]4 | [D,A,]>[D,A,] [D,A,]3 [D,D] | %13
w: ~ ~ ~ ~|~ ~ ~|~ ~ ~ ~|
 [G,D]2 [G,D]2 z2 | [A,D]>[A,D] [A,D]2 [A,,A,]2 | [D,F,]4 z2 || [D,A,]2 [D,A,]2 z2 | %17
w: ~ ~|~ ~ ~ ~|~|Je- sus|
 [E,A,]2 [E,A,]2 z2 | [A,,A,]>[A,,A,] [A,,E,]3 [C,A,] | [D,A,]>[D,D] [D,D]4 | [D,A,]2 [D,A,]2 z2 | %21
w: call- ing,|~ ~ ~ ~|~ ~ ~|Je- sus|
 [E,A,]2 [E,A,]2 z2 | [A,,A,]>[A,,A,] [A,,A,]2 [A,,G,]2 | [D,F,]4 z2 |] %24
w: call- ing,|||

